X:909
T:Whigs of Fife, The
R:Reel
C:William Marshall
B:The Athole Collection
M:C|
L:1/8
K:F
f|cF F/F/F AGGA|cF F/F/F fgag|~fF F/F/F AGGA|FDE^C D2D:|
|:e|fccf gdde|fccd fgag|fccf gdde|1 fagf d2d:|2 fagf defd||

